X:1
T:Title
%%score ( 1 2 ) ( 3 4 )
L:1/8
Q:1/4=105
M:6/8
K:C
V:1 treble nm="Grand Piano, Soprano"
V:2 treble 
V:3 bass nm="Choir Pad, The Children�s Friend Is Jesus"
V:4 bass 
V:1
 [EG] [EG]2 [EG][EG][CE] | [EG] [FA]2- [FA] [Fc]2 | [FA] [EG]2 [CE]DG | %3
w: By~Robert~Harkness * * * *|||
 [DF] [CE]2- [CE]2- [CE]/ z/ | [EG] [EG]2 [EG][EG][CE] | [EG] [FA]2- [FA] [Fc]2 | %6
w: |||
 [FA] [EG]2 [Ec][Fd][Ec] | [DB] [Ec]2- [Ec]2- [Ec]/ z/ | [FG] [Ec]2 [Ec]dc | %9
w: |||
 [FA] [EG]2- [EG] [CE]2- | [CE] [DF]2- [DF] [B,D]2- | [B,D] [EG]2- [EG] [CE]2 | [FG] [Ec]2 [Ec]dc | %13
w: ||||
 [FA] [EG]2 [CE] [EG]2 | [CG] [Ec]2 [Ec][Fd][Ec] | [DB] [Ec]2- [Ec]3- | [Ec]3 z3 |] %17
w: ||||
V:2
 x6 | x6 | z3 z B,2 | x6 | x6 | x6 | x6 | x6 | z3 z F2 | x6 | x6 | x6 | z3 z F2 | x6 | x6 | x6 | %16
 x6 |] %17
V:3
 [C,C] [C,C]2 [C,C] [C,C]2 | [C,C] [F,C]2- [F,C] [F,A,]2 | [F,C] [G,C]2 G, [G,,G,]2 | %3
 [G,,G,] [C,G,]2- [C,G,]2- [C,G,]/ z/ | [C,C] [C,C]2 [C,C] [C,C]2 | [C,C] [F,C]2- [F,C] [F,A,]2 | %6
 [F,C] [G,C]2 G, [G,,G,]2 | [G,,G,] [C,G,]2- [C,G,]2- [C,G,]/ z/ | G, [C,G,]2 [C,^G,] [C,A,]2 | %9
 [C,B,] C2 A, [C,G,]2- | [C,G,] [G,,G,]2- [G,,G,] G,2- | G, [C,G,]2- [C,G,] [C,G,]2 | %12
 G, [C,G,]2 [C,^G,] [C,A,]2 | [C,B,] [C,C]2 [C,G,] [C,C]2 | [E,G,] G,2 G, [G,,G,]2 | %15
 G, [C,G,]2- [C,G,]3- | [C,G,]3 z3 |] %17
V:4
 x6 | x6 | x6 | x6 | x6 | x6 | x6 | x6 | x6 | z C,2- C,/ z/ z z | x6 | x6 | x6 | x6 | x6 | x6 | %16
 x6 |] %17

